images/fuel.svg

<?xml version="1.0" encoding="UTF-8" standalone="no"?>
<!-- Created with Inkscape (http://www.inkscape.org/) -->

<svg xmlns:dc="http://purl.org/dc/elements/1.1/" xmlns:cc="http://creativecommons.org/ns#" xmlns:rdf="http://www.w3.org/1999/02/22-rdf-syntax-ns#" xmlns:svg="http://www.w3.org/2000/svg" xmlns="http://www.w3.org/2000/svg" xmlns:sodipodi="http://sodipodi.sourceforge.net/DTD/sodipodi-0.dtd" xmlns:inkscape="http://www.inkscape.org/namespaces/inkscape" version="1.1" width="14" height="14" viewBox="0 0 14 14" id="svg5212" sodipodi:docname="fuel.svg" inkscape:version="0.92.4 (5da689c313, 2019-01-14)">
  <metadata id="metadata5218">
    <rdf:RDF>
      <cc:Work rdf:about="">
        <dc:format>image/svg+xml</dc:format>
        <dc:type rdf:resource="http://purl.org/dc/dcmitype/StillImage" />
        <dc:title></dc:title>
      </cc:Work>
    </rdf:RDF>
  </metadata>
  <defs id="defs5216" />
  <sodipodi:namedview pagecolor="#ffffff" bordercolor="#666666" borderopacity="1" objecttolerance="10" gridtolerance="10" guidetolerance="10" inkscape:pageopacity="0" inkscape:pageshadow="2" inkscape:window-width="1881" inkscape:window-height="1051" id="namedview5214" showgrid="false" inkscape:pagecheckerboard="true" inkscape:zoom="16.857143" inkscape:cx="7" inkscape:cy="7" inkscape:window-x="0" inkscape:window-y="0" inkscape:window-maximized="1" inkscape:current-layer="svg5212" />
  <path id="outline" d="M 10.78125,0 L 10.15625,0.71875 L 11.34375,1.8125 C 11.37996,1.848712 11.42935,1.897193 11.46875,1.9375 L 11.21875,2.21875 C 10.818532,2.6189681 11.105689,3.1369332 11.25,3.28125 L 12,4.03125 V 10 C 12,11 11.607864,11 11.5,11 C 11.392136,11 11,11 11,10 V 6 C 11,4.7190916 10,4 9,4 V 2 C 9,1.4486964 8.575273,1 8,1 H 2 C 1.400757,1 1,1.4247267 1,2 V 14 H 9 V 5 C 9,5 10,5 10,6 V 10 C 10,12 11.239698,12 11.5,12 C 11.775652,12 13,12 13,10 V 3 C 13,2 12.713983,1.7907839 12.375,1.46875 Z M 2,3 H 8 V 6 H 2 Z" style="opacity:0.5;fill:none;stroke:#ffffff;stroke-width:3;stroke-linecap:round;stroke-linejoin:round;stroke-miterlimit:4;stroke-dasharray:none;stroke-opacity:1" inkscape:connector-curvature="0" />
  <path d="m 10.78125,0 -0.625,0.71875 1.1875,1.09375 c 0.03621,0.036212 0.0856,0.084693 0.125,0.125 l -0.25,0.28125 C 10.818532,2.6189681 11.105689,3.1369332 11.25,3.28125 L 12,4.03125 12,10 c 0,1 -0.392136,1 -0.5,1 C 11.392136,11 11,11 11,10 L 11,6 C 11,4.7190916 10,4 9,4 L 9,2 C 9,1.4486964 8.575273,1 8,1 L 2,1 C 1.400757,1 1,1.4247267 1,2 l 0,12 8,0 0,-9 c 0,0 1,0 1,1 l 0,4 c 0,2 1.239698,2 1.5,2 0.275652,0 1.5,0 1.5,-2 L 13,3 C 13,2 12.713983,1.7907839 12.375,1.46875 L 10.78125,0 z M 2,3 8,3 8,6 2,6 2,3 z" id="fuel" />
</svg>

<svg xmlns="http://www.w3.org/2000/svg" width="14" height="14">
    <path d="M10.781 0l-.625.719 1.188 1.094.125.125-.25.28c-.4.401-.113.919.031 1.063l.75.75V10c0 1-.392 1-.5 1-.108 0-.5 0-.5-1V6c0-1.28-1-2-2-2V2c0-.551-.425-1-1-1H2c-.6 0-1 .425-1 1v12h8V5s1 0 1 1v4c0 2 1.24 2 1.5 2 .276 0 1.5 0 1.5-2V3c0-1-.286-1.21-.625-1.531zM2 3h6v3H2z" opacity=".5" fill="none" stroke="#fff" stroke-width="3" stroke-linecap="round" stroke-linejoin="round"/>
    <path d="M10.781 0l-.625.719 1.188 1.094.125.125-.25.28c-.4.401-.113.919.031 1.063l.75.75V10c0 1-.392 1-.5 1-.108 0-.5 0-.5-1V6c0-1.28-1-2-2-2V2c0-.551-.425-1-1-1H2c-.6 0-1 .425-1 1v12h8V5s1 0 1 1v4c0 2 1.24 2 1.5 2 .276 0 1.5 0 1.5-2V3c0-1-.286-1.21-.625-1.531L10.781 0zM2 3h6v3H2V3z"/>
</svg>
